src/assets/imgs/profit-two-page/4.svg

<svg fill="none" height="95" viewBox="0 0 77 95" width="77" xmlns="http://www.w3.org/2000/svg"><g fill="#000"><path d="m34.8359 7.80078c-3.8085-4.92187-8.9062-7.67578-14.2968-7.67578-5.4493 0-10.54691 2.69532-14.29691 7.67578-3.69141 4.80472-5.74219 11.25002-5.74219 18.04692 0 6.7968 2.05078 13.1835 5.74219 18.0468 2.22656 2.9297 4.92191 5.0391 7.85151 6.3282v10.8398l-1.6992 24.375c-.1757 2.3438.6446 4.6289 2.2266 6.3281s3.8086 2.6953 6.1523 2.6953c2.3438 0 4.5704-.9961 6.211-2.6953 1.582-1.6992 2.4023-4.0429 2.2265-6.3867l-1.875-24.3164v-11.0742c2.8125-1.2891 5.3321-3.3399 7.5-6.1524 3.6915-4.8046 5.7422-11.25 5.7422-18.0468 0-6.7969-2.0507-13.1836-5.7422-17.98832zm-9.9609 82.03122c-1.0547 1.1719-2.5195 1.8164-4.1016 1.8164-1.582 0-3.0468-.6445-4.1015-1.8164-1.0547-1.1718-1.5821-2.6367-1.5235-4.2187l1.6407-23.1446h7.8515l1.7578 23.086c.1172 1.6406-.4101 3.1641-1.5234 4.2773zm-.3516-30.1171h-7.6757v-8.6133c.7617.1757 1.582.2929 2.4023.3515h.4688.0585.4102.0586.2344.1757.0586.4102c1.1133-.0586 2.2266-.2344 3.3398-.4687zm1.1133-12.0704-.2344.1172c-.7617.293-1.582.5274-2.4023.7031h-.0586c-.1758.0586-.3516.0586-.5273.1172h-.0586c-.1758 0-.4102.0586-.586.0586h-.0586c-.1757 0-.2929 0-.4687.0586-.0586 0-.1172 0-.1172 0-.1758 0-.3516 0-.5859 0-.1758 0-.3516 0-.5274 0-.0586 0-.1172 0-.1172 0-.1172 0-.2929 0-.4101 0-.0586 0-.1172 0-.1172 0-.3516-.0586-.7031-.0586-1.0547-.1172h-.0586c-.1758-.0586-.3516-.0586-.5273-.1172h-.0586c-.586-.1171-1.1133-.2929-1.6407-.4687l-.1757-.0586c-7.20707-2.7539-12.5391-11.543-12.5391-22.0313 0-12.5976 7.7344-22.91011 17.2852-22.91011 9.5507 0 17.2851 10.25391 17.2851 22.91011-.1172 10.1368-5.2148 18.8672-12.2461 21.7383z"/><path d="m76.7305 26.1992h-7.9102c-.1172-1.6406-.4102-3.2812-.7617-4.8633l7.5-1.289-.4688-2.7539-7.7343 1.3476c-.4102-1.3476-.9375-2.6953-1.5235-3.9258l7.5586-1.9921-.7031-2.6954-8.0859 2.1094.0585.2344c-.996-1.6992-2.1093-3.22266-3.3398-4.45313l6.7969-1.46484-.586-2.75391-8.8476 1.875v.05859c-.5274-.35156-1.0547-.70312-1.6406-.9375-.586-2.63671-2.9297-4.57031-5.7422-4.57031-3.2227 0-5.8594 2.63672-5.8594 5.85938v40.60542 15.8789 26.1329c0 3.2226 2.6367 5.8593 5.8594 5.8593 3.2226 0 5.8594-2.6367 5.8594-5.8593v-26.0743-10.2539c1.1718-.8203 2.3437-1.8164 3.457-2.9296l8.6133 1.9921.6445-2.7539-7.1484-1.6406c.9961-1.2891 1.9335-2.6953 2.7539-4.1601l7.9687 2.1093.7031-2.6953-7.3828-1.9336c.5274-1.2304.9375-2.4609 1.2891-3.75l7.6172 1.2891.4687-2.7539-7.4414-1.2891c.2344-1.3476.3516-2.7539.3516-4.2187 0-.1758 0-.293 0-.4688h7.7344zm-22.3243 62.4024c0 1.6992-1.4062 3.1054-3.1054 3.1054s-3.1055-1.4062-3.1055-3.1054v-26.0743h6.2109zm0-28.8867h-6.1523v-10.254h6.1523zm0-13.0665h-6.1523v-40.66402c0-1.69922 1.4062-3.10548 3.1055-3.10548 1.6992 0 3.1054 1.40626 3.1054 3.10548zm2.8125 2.0508v-2.0508-38.61324c5.2149 3.57424 8.9649 12.30464 8.9649 21.38674 0 7.9101-4.2188 15.2343-8.9649 19.2773z"/></g></svg>

<svg width="77" height="95" viewBox="0 0 77 95" fill="none" xmlns="http://www.w3.org/2000/svg">
<path d="M34.8359 7.80078C31.0274 2.87891 25.9297 0.125 20.5391 0.125C15.0898 0.125 9.99219 2.82032 6.24219 7.80078C2.55078 12.6055 0.5 19.0508 0.5 25.8477C0.5 32.6445 2.55078 39.0312 6.24219 43.8945C8.46875 46.8242 11.1641 48.9336 14.0937 50.2227V61.0625L12.3945 85.4375C12.2188 87.7813 13.0391 90.0664 14.6211 91.7656C16.2031 93.4648 18.4297 94.4609 20.7734 94.4609C23.1172 94.4609 25.3438 93.4648 26.9844 91.7656C28.5664 90.0664 29.3867 87.7227 29.2109 85.3789L27.3359 61.0625V49.9883C30.1484 48.6992 32.668 46.6484 34.8359 43.8359C38.5274 39.0313 40.5781 32.5859 40.5781 25.7891C40.5781 18.9922 38.5274 12.6055 34.8359 7.80078ZM24.875 89.832C23.8203 91.0039 22.3555 91.6484 20.7734 91.6484C19.1914 91.6484 17.7266 91.0039 16.6719 89.832C15.6172 88.6602 15.0898 87.1953 15.1484 85.6133L16.7891 62.4687H24.6406L26.3984 85.5547C26.5156 87.1953 25.9883 88.7188 24.875 89.832ZM24.5234 59.7149H16.8477V51.1016C17.6094 51.2773 18.4297 51.3945 19.25 51.4531C19.4258 51.4531 19.543 51.4531 19.7188 51.4531H19.7773C19.8945 51.4531 20.0703 51.4531 20.1875 51.4531H20.2461C20.3047 51.4531 20.4219 51.4531 20.4805 51.4531C20.5391 51.4531 20.5977 51.4531 20.6562 51.4531H20.7148C20.832 51.4531 21.0078 51.4531 21.125 51.4531C22.2383 51.3945 23.3516 51.2187 24.4648 50.9844L24.5234 59.7149ZM25.6367 47.6445L25.4023 47.7617C24.6406 48.0547 23.8203 48.2891 23 48.4648H22.9414C22.7656 48.5234 22.5898 48.5234 22.4141 48.582H22.3555C22.1797 48.582 21.9453 48.6406 21.7695 48.6406H21.7109C21.5352 48.6406 21.418 48.6406 21.2422 48.6992C21.1836 48.6992 21.125 48.6992 21.125 48.6992C20.9492 48.6992 20.7734 48.6992 20.5391 48.6992C20.3633 48.6992 20.1875 48.6992 20.0117 48.6992C19.9531 48.6992 19.8945 48.6992 19.8945 48.6992C19.7773 48.6992 19.6016 48.6992 19.4844 48.6992C19.4258 48.6992 19.3672 48.6992 19.3672 48.6992C19.0156 48.6406 18.6641 48.6406 18.3125 48.582H18.2539C18.0781 48.5234 17.9023 48.5234 17.7266 48.4648H17.668C17.082 48.3477 16.5547 48.1719 16.0273 47.9961L15.8516 47.9375C8.64453 45.1836 3.3125 36.3945 3.3125 25.9062C3.3125 13.3086 11.0469 2.99609 20.5977 2.99609C30.1484 2.99609 37.8828 13.25 37.8828 25.9062C37.7656 36.043 32.668 44.7734 25.6367 47.6445Z" fill="black"/>
<path d="M76.7305 26.1992H68.8203C68.7031 24.5586 68.4101 22.918 68.0586 21.3359L75.5586 20.0469L75.0898 17.293L67.3555 18.6406C66.9453 17.293 66.418 15.9453 65.832 14.7148L73.3906 12.7227L72.6875 10.0273L64.6016 12.1367L64.6601 12.3711C63.6641 10.6719 62.5508 9.14844 61.3203 7.91797L68.1172 6.45313L67.5312 3.69922L58.6836 5.57422V5.63281C58.1562 5.28125 57.6289 4.92969 57.043 4.69531C56.457 2.0586 54.1133 0.125 51.3008 0.125C48.0781 0.125 45.4414 2.76172 45.4414 5.98438V46.5898V62.4687V88.6016C45.4414 91.8242 48.0781 94.4609 51.3008 94.4609C54.5234 94.4609 57.1602 91.8242 57.1602 88.6016V62.5273V52.2734C58.332 51.4531 59.5039 50.457 60.6172 49.3438L69.2305 51.3359L69.875 48.582L62.7266 46.9414C63.7227 45.6523 64.6601 44.2461 65.4805 42.7813L73.4492 44.8906L74.1523 42.1953L66.7695 40.2617C67.2969 39.0313 67.707 37.8008 68.0586 36.5117L75.6758 37.8008L76.1445 35.0469L68.7031 33.7578C68.9375 32.4102 69.0547 31.0039 69.0547 29.5391C69.0547 29.3633 69.0547 29.2461 69.0547 29.0703H76.7891L76.7305 26.1992ZM54.4062 88.6016C54.4062 90.3008 53 91.707 51.3008 91.707C49.6016 91.707 48.1953 90.3008 48.1953 88.6016V62.5273H54.4062V88.6016ZM54.4062 59.7149H48.2539V49.4609H54.4062V59.7149ZM54.4062 46.6484H48.2539V5.98438C48.2539 4.28516 49.6601 2.8789 51.3594 2.8789C53.0586 2.8789 54.4648 4.28516 54.4648 5.98438L54.4062 46.6484ZM57.2187 48.6992V46.6484V8.03516C62.4336 11.6094 66.1836 20.3398 66.1836 29.4219C66.1836 37.332 61.9648 44.6562 57.2187 48.6992Z" fill="black"/>
</svg>
